X:1
T:Apollo Club -- Hornpipe
R:hornpipe
B:Cole's 1000 Fiddle Tunes
M:2/4
L:1/16
K:A
(3(uEFG)|vA2A2 ABcd|ecea ecBA|fedc dcBA|GABc .B2((3EFG)|
A2A2 ABcd|ecea ecBA|fedc BAGB|A2A2A2:|
|:(ucd)|vecea ecea|fdfa fdfa|fedc dcBA|GABc B2(ucd)|
ecea ecea|fdfa fdfa|fedc BAGB|A2A2A2:|
